svgs/kura_sushi.svg

<svg width="192" height="192" viewBox="0 0 192 192" fill="none" xmlns="http://www.w3.org/2000/svg">
<path d="M75.4451 57C52.1746 74.5806 45.4419 82.513 24.4705 94.8556C22.4157 96.0649 22.5391 99.126 24.6856 100.159C46.6588 110.73 63.5122 120.217 87.2047 135M118.564 59.9809C132.897 61.8291 143.553 62.465 158.742 67.9299M116.252 82.3376C113.79 88.933 100.103 122.58 103.864 116.121C107.626 109.662 149.245 78.7862 165.496 100.602C181.746 122.417 136.203 133.51 136.203 133.51" stroke="black" stroke-width="14" stroke-linecap="round"/>
</svg>

<svg xmlns="http://www.w3.org/2000/svg" width="192" height="192" fill="none"><path stroke="#000" stroke-linecap="round" stroke-width="14" d="M75.445 57c-23.27 17.58-30.003 25.513-50.974 37.856-2.055 1.209-1.932 4.27.215 5.303C46.659 110.73 63.512 120.217 87.205 135m31.359-75.02c14.333 1.85 24.989 2.485 40.178 7.95m-42.49 14.408c-2.462 6.595-16.149 40.242-12.388 33.783s45.381-37.335 61.632-15.519c16.25 21.815-29.293 32.908-29.293 32.908"/></svg>
